public/assets/icons/logout.svg

<svg fill="none" height="20" viewBox="0 0 20 20" width="20" xmlns="http://www.w3.org/2000/svg"><g stroke="#e53e3e" stroke-linecap="round" stroke-linejoin="round" stroke-width="1.5"><path d="m7.41663 6.29995c.25833-3 1.8-4.225 5.17497-4.225h.1084c3.725 0 5.2166 1.49167 5.2166 5.21667v5.43338c0 3.725-1.4916 5.2166-5.2166 5.2166h-.1084c-3.34997 0-4.89164-1.2083-5.16664-4.1583"/><path d="m12.5002 10h-9.48335"/><path d="m4.87504 7.20825-2.79167 2.79167 2.79167 2.79168"/></g></svg>

<svg width="20" height="20" viewBox="0 0 20 20" fill="none" xmlns="http://www.w3.org/2000/svg">
<path d="M7.41663 6.29995C7.67496 3.29995 9.21663 2.07495 12.5916 2.07495H12.7C16.425 2.07495 17.9166 3.56662 17.9166 7.29162V12.725C17.9166 16.45 16.425 17.9416 12.7 17.9416H12.5916C9.24163 17.9416 7.69996 16.7333 7.42496 13.7833" stroke="#E53E3E" stroke-width="1.5" stroke-linecap="round" stroke-linejoin="round"/>
<path d="M12.5002 10H3.01685" stroke="#E53E3E" stroke-width="1.5" stroke-linecap="round" stroke-linejoin="round"/>
<path d="M4.87504 7.20825L2.08337 9.99992L4.87504 12.7916" stroke="#E53E3E" stroke-width="1.5" stroke-linecap="round" stroke-linejoin="round"/>
</svg>
